N10(mft_blocks_chamfers)
N20(Masso Carveco Post Processor 2023)
N30(Post Processor version Imperial v1.1)
N40(Material Size) (X=8.780, Y=12.795, Z=0.500)
N50 G17
N60 G20
N70 G80
N80 G90
N90 G00
N100(Tool Number:1) (90.0 degrees V-Bit 0.250 inches dia.)
N110 T1 M06
N120 M08
N130 S15000 M3
N140 G00 X2.047 Y0.787 Z0.394
N150 G01   Z-0.020 F20
N160 G01 X3.425   F40
N170 G01 X3.085 Y3.563 
N180 G00   Z0.020
N190 G01 X2.980 Y4.423  F40
N200 G01   Z-0.020 F20
N210 G01 X2.492 Y8.412  F40
N220 G00   Z0.020
N230 G01 X2.387 Y9.271  F40
N240 G01   Z-0.020 F20
N250 G01 X2.047 Y12.047  F40
N260 G01 X0.787  
N270 G01  Y9.272 
N280 G00   Z0.020
N290 G01  Y8.406  F40
N300 G01   Z-0.020 F20
N310 G01  Y4.429  F40
N320 G00   Z0.020
N330 G01  Y3.563  F40
N340 G01   Z-0.020 F20
N350 G01  Y0.787  F40
N360 G01 X2.047  
N370 G01   Z-0.039 F20
N380 G01 X3.425   F40
N390 G01 X3.085 Y3.563 
N400 G00   Z0.020
N410 G01 X2.980 Y4.423  F40
N420 G01   Z-0.039 F20
N430 G01 X2.492 Y8.412  F40
N440 G00   Z0.020
N450 G01 X2.387 Y9.271  F40
N460 G01   Z-0.039 F20
N470 G01 X2.047 Y12.047  F40
N480 G01 X0.787  
N490 G01  Y9.272 
N500 G00   Z0.020
N510 G01  Y8.406  F40
N520 G01   Z-0.039 F20
N530 G01  Y4.429  F40
N540 G00   Z0.020
N550 G01  Y3.563  F40
N560 G01   Z-0.039 F20
N570 G01  Y0.787  F40
N580 G01 X2.047  
N590 G00   Z0.394
N600 G00 X1.024 Y2.638 
N610 G01   Z-0.020 F20
N620 G02 X1.417 Y3.031 I0.394 J-0.000 F40
N630 G02 X1.811 Y2.638 I0.000 J-0.394
N640 G02 X1.417 Y2.244 I-0.394 J-0.000
N650 G02 X1.024 Y2.638 I0.000 J0.394
N660 G01   Z-0.039 F20
N670 G02 X1.417 Y3.031 I0.394 J-0.000 F40
N680 G02 X1.811 Y2.638 I0.000 J-0.394
N690 G02 X1.417 Y2.244 I-0.394 J-0.000
N700 G02 X1.024 Y2.638 I0.000 J0.394
N710 G00   Z0.394
N720 G00 X4.449  
N730 G01   Z-0.020 F20
N740 G02 X4.843 Y3.031 I0.394 J-0.000 F40
N750 G02 X5.236 Y2.638 I0.000 J-0.394
N760 G02 X4.843 Y2.244 I-0.394 J-0.000
N770 G02 X4.449 Y2.638 I0.000 J0.394
N780 G01   Z-0.039 F20
N790 G02 X4.843 Y3.031 I0.394 J-0.000 F40
N800 G02 X5.236 Y2.638 I0.000 J-0.394
N810 G02 X4.843 Y2.244 I-0.394 J-0.000
N820 G02 X4.449 Y2.638 I0.000 J0.394
N830 G00   Z0.394
N840 G00 X5.709  
N850 G01   Z-0.020 F20
N860 G02 X6.102 Y3.031 I0.394 J-0.000 F40
N870 G02 X6.496 Y2.638 I0.000 J-0.394
N880 G02 X6.102 Y2.244 I-0.394 J-0.000
N890 G02 X5.709 Y2.638 I0.000 J0.394
N900 G01   Z-0.039 F20
N910 G02 X6.102 Y3.031 I0.394 J-0.000 F40
N920 G02 X6.496 Y2.638 I0.000 J-0.394
N930 G02 X6.102 Y2.244 I-0.394 J-0.000
N940 G02 X5.709 Y2.638 I0.000 J0.394
N950 G00   Z0.394
N960 G00 X6.969  
N970 G01   Z-0.020 F20
N980 G02 X7.362 Y3.031 I0.394 J-0.000 F40
N990 G02 X7.756 Y2.638 I0.000 J-0.394
N1000 G02 X7.362 Y2.244 I-0.394 J-0.000
N1010 G02 X6.969 Y2.638 I0.000 J0.394
N1020 G01   Z-0.039 F20
N1030 G02 X7.362 Y3.031 I0.394 J-0.000 F40
N1040 G02 X7.756 Y2.638 I0.000 J-0.394
N1050 G02 X7.362 Y2.244 I-0.394 J-0.000
N1060 G02 X6.969 Y2.638 I0.000 J0.394
N1070 G00   Z0.394
N1080 G00 X6.732 Y0.787 
N1090 G01   Z-0.020 F20
N1100 G01 X7.992   F40
N1110 G00   Z0.394
N1120 G00 X6.732  
N1130 G01   Z-0.039 F20
N1140 G01 X7.992   F40
N1150 G00   Z0.394
N1160 G00 X6.969 Y6.417 
N1170 G01   Z-0.020 F20
N1180 G02 X7.362 Y6.811 I0.394 J-0.000 F40
N1190 G02 X7.756 Y6.417 I0.000 J-0.394
N1200 G02 X7.362 Y6.024 I-0.394 J0.000
N1210 G02 X6.969 Y6.417 I-0.000 J0.394
N1220 G01   Z-0.039 F20
N1230 G02 X7.362 Y6.811 I0.394 J-0.000 F40
N1240 G02 X7.756 Y6.417 I0.000 J-0.394
N1250 G02 X7.362 Y6.024 I-0.394 J0.000
N1260 G02 X6.969 Y6.417 I-0.000 J0.394
N1270 G00   Z0.394
N1280 G00 X5.709  
N1290 G01   Z-0.020 F20
N1300 G02 X6.102 Y6.811 I0.394 J-0.000 F40
N1310 G02 X6.496 Y6.417 I0.000 J-0.394
N1320 G02 X6.102 Y6.024 I-0.394 J-0.000
N1330 G02 X5.709 Y6.417 I-0.000 J0.394
N1340 G01   Z-0.039 F20
N1350 G02 X6.102 Y6.811 I0.394 J-0.000 F40
N1360 G02 X6.496 Y6.417 I0.000 J-0.394
N1370 G02 X6.102 Y6.024 I-0.394 J-0.000
N1380 G02 X5.709 Y6.417 I-0.000 J0.394
N1390 G00   Z0.394
N1400 G00 X4.449  
N1410 G01   Z-0.020 F20
N1420 G02 X4.843 Y6.811 I0.394 J-0.000 F40
N1430 G02 X5.236 Y6.417 I0.000 J-0.394
N1440 G02 X4.843 Y6.024 I-0.394 J0.000
N1450 G02 X4.449 Y6.417 I0.000 J0.394
N1460 G01   Z-0.039 F20
N1470 G02 X4.843 Y6.811 I0.394 J-0.000 F40
N1480 G02 X5.236 Y6.417 I0.000 J-0.394
N1490 G02 X4.843 Y6.024 I-0.394 J0.000
N1500 G02 X4.449 Y6.417 I0.000 J0.394
N1510 G00   Z0.394
N1520 G00 X1.024  
N1530 G01   Z-0.020 F20
N1540 G02 X1.417 Y6.811 I0.394 J-0.000 F40
N1550 G02 X1.811 Y6.417 I0.000 J-0.394
N1560 G02 X1.417 Y6.024 I-0.394 J0.000
N1570 G02 X1.024 Y6.417 I-0.000 J0.394
N1580 G01   Z-0.039 F20
N1590 G02 X1.417 Y6.811 I0.394 J-0.000 F40
N1600 G02 X1.811 Y6.417 I0.000 J-0.394
N1610 G02 X1.417 Y6.024 I-0.394 J0.000
N1620 G02 X1.024 Y6.417 I-0.000 J0.394
N1630 G00   Z0.394
N1640 G00  Y10.197 
N1650 G01   Z-0.020 F20
N1660 G02 X1.417 Y10.591 I0.394 J0.000 F40
N1670 G02 X1.811 Y10.197 I-0.000 J-0.394
N1680 G02 X1.417 Y9.803 I-0.394 J0.000
N1690 G02 X1.024 Y10.197 I-0.000 J0.394
N1700 G01   Z-0.039 F20
N1710 G02 X1.417 Y10.591 I0.394 J0.000 F40
N1720 G02 X1.811 Y10.197 I-0.000 J-0.394
N1730 G02 X1.417 Y9.803 I-0.394 J0.000
N1740 G02 X1.024 Y10.197 I-0.000 J0.394
N1750 G00   Z0.394
N1760 G00 X4.449  
N1770 G01   Z-0.020 F20
N1780 G02 X4.843 Y10.591 I0.394 J0.000 F40
N1790 G02 X5.236 Y10.197 I-0.000 J-0.394
N1800 G02 X4.843 Y9.803 I-0.394 J0.000
N1810 G02 X4.449 Y10.197 I0.000 J0.394
N1820 G01   Z-0.039 F20
N1830 G02 X4.843 Y10.591 I0.394 J0.000 F40
N1840 G02 X5.236 Y10.197 I-0.000 J-0.394
N1850 G02 X4.843 Y9.803 I-0.394 J0.000
N1860 G02 X4.449 Y10.197 I0.000 J0.394
N1870 G00   Z0.394
N1880 G00 X5.709  
N1890 G01   Z-0.020 F20
N1900 G02 X6.102 Y10.591 I0.394 J0.000 F40
N1910 G02 X6.496 Y10.197 I-0.000 J-0.394
N1920 G02 X6.102 Y9.803 I-0.394 J-0.000
N1930 G02 X5.709 Y10.197 I0.000 J0.394
N1940 G01   Z-0.039 F20
N1950 G02 X6.102 Y10.591 I0.394 J0.000 F40
N1960 G02 X6.496 Y10.197 I-0.000 J-0.394
N1970 G02 X6.102 Y9.803 I-0.394 J-0.000
N1980 G02 X5.709 Y10.197 I0.000 J0.394
N1990 G00   Z0.394
N2000 G00 X6.969  
N2010 G01   Z-0.020 F20
N2020 G02 X7.362 Y10.591 I0.394 J0.000 F40
N2030 G02 X7.756 Y10.197 I-0.000 J-0.394
N2040 G02 X7.362 Y9.803 I-0.394 J0.000
N2050 G02 X6.969 Y10.197 I0.000 J0.394
N2060 G01   Z-0.039 F20
N2070 G02 X7.362 Y10.591 I0.394 J0.000 F40
N2080 G02 X7.756 Y10.197 I-0.000 J-0.394
N2090 G02 X7.362 Y9.803 I-0.394 J0.000
N2100 G02 X6.969 Y10.197 I0.000 J0.394
N2110 G00   Z0.394
N2120 G00 X6.732 Y12.047 
N2130 G01   Z-0.020 F20
N2140 G01 X7.992   F40
N2150 G00   Z0.394
N2160 G00 X6.732  
N2170 G01   Z-0.039 F20
N2180 G01 X7.992   F40
N2190 G00   Z0.394
N2200 G00 X4.213  
N2210 G01   Z-0.020 F20
N2220 G01 X2.835   F40
N2230 G01 X3.471 Y6.847 
N2240 G00   Z0.020
N2250 G01 X3.576 Y5.987  F40
N2260 G01   Z-0.020 F20
N2270 G01 X4.213 Y0.787  F40
N2280 G01 X5.669  
N2290 G00   Z0.020
N2300 G01 X6.535   F40
N2310 G01   Z-0.020 F20
N2320 G01 X7.992   F40
N2330 G01  Y5.984 
N2340 G00   Z0.020
N2350 G01  Y6.850  F40
N2360 G01   Z-0.020 F20
N2370 G01  Y12.047  F40
N2380 G01 X6.535  
N2390 G00   Z0.020
N2400 G01 X5.669   F40
N2410 G01   Z-0.020 F20
N2420 G01 X4.213   F40
N2430 G01   Z-0.039 F20
N2440 G01 X2.835   F40
N2450 G01 X3.471 Y6.847 
N2460 G00   Z0.020
N2470 G01 X3.576 Y5.987  F40
N2480 G01   Z-0.039 F20
N2490 G01 X4.213 Y0.787  F40
N2500 G01 X5.669  
N2510 G00   Z0.020
N2520 G01 X6.535   F40
N2530 G01   Z-0.039 F20
N2540 G01 X7.992   F40
N2550 G01  Y5.984 
N2560 G00   Z0.020
N2570 G01  Y6.850  F40
N2580 G01   Z-0.039 F20
N2590 G01  Y12.047  F40
N2600 G01 X6.535  
N2610 G00   Z0.020
N2620 G01 X5.669   F40
N2630 G01   Z-0.039 F20
N2640 G01 X4.213   F40
N2650 G00   Z0.394
N2660 G00Z1.527
N2670 G00X0.000Y0.000
N2680 M05
N2690 M09
N2700 M30
